material/.icons/material/currency-usd-circle-outline.svg

<svg xmlns="http://www.w3.org/2000/svg" viewBox="0 0 24 24"><path d="M12 2a10 10 0 0110 10 10 10 0 01-10 10A10 10 0 012 12 10 10 0 0112 2m0 2a8 8 0 00-8 8 8 8 0 008 8 8 8 0 008-8 8 8 0 00-8-8m-1 13v-1H9v-2h4v-1h-3a1 1 0 01-1-1V9a1 1 0 011-1h1V7h2v1h2v2h-4v1h3a1 1 0 011 1v3a1 1 0 01-1 1h-1v1h-2z"/></svg>

<?xml version="1.0" encoding="UTF-8"?><!DOCTYPE svg PUBLIC "-//W3C//DTD SVG 1.1//EN" "http://www.w3.org/Graphics/SVG/1.1/DTD/svg11.dtd"><svg xmlns="http://www.w3.org/2000/svg" xmlns:xlink="http://www.w3.org/1999/xlink" version="1.1" id="mdi-currency-usd-circle-outline" width="24" height="24" viewBox="0 0 24 24"><path d="M12,2A10,10 0 0,1 22,12A10,10 0 0,1 12,22A10,10 0 0,1 2,12A10,10 0 0,1 12,2M12,4A8,8 0 0,0 4,12A8,8 0 0,0 12,20A8,8 0 0,0 20,12A8,8 0 0,0 12,4M11,17V16H9V14H13V13H10A1,1 0 0,1 9,12V9A1,1 0 0,1 10,8H11V7H13V8H15V10H11V11H14A1,1 0 0,1 15,12V15A1,1 0 0,1 14,16H13V17H11Z" /></svg>
